X:379
T:Aires de Pontevedra
S:Leeds Session
R:Other
O:Spain
M:C
A:Galicia
K:Em
EF|"G"GFGE "D"FDEF|"G"GFGF "D"D2EF| \
"G"GFGE "D"FDEF|                    \
M:6/4
"G"GFGE "D"D6AB| \
M:2/4
L:1/8
"C"c2 ce|dc BA|GF GA|"A"G2 G>e|             \
dc BA| GF GA|"D"F2 F>e|dc BA|GF GA|"A"E2E2| \
"D"FA FD|FA FD|"A"EG EG|"D"E4::             \
M:C
K:D
A2|                           \
"D"d2A2 F2GA|"G"BAGF "A"E3A|  \
"G"BAGF E2FG|"A"AGFE "D"D2A2| \
"D"d2A2 F2GA|"G"BAGF "A"E3F|  \
"G"GFGA BAFD|"A"AGFE "D"D2 :|



Xose Luis Foxo- Os segredos da Gaita
Z:Transcrito por Antonio-Nil
C:gaiteiro de Viasc\'on
M:2/4
L:1/16
K:Amix
EF |: GFGEFDEF| GFGEFDEF| GFGEFDEF| GFGEFDFA| =c4 cBce| d=cBAGFGA| G4{GA}GFGA| d=cBAGFGA| F2{GF}D2FDFA|
d=cBAGFGA| E4FAFD| FAFDGAGC| E2D2D4-|1 D6EF :|2 D2A2d2A2|: F2GABAGF| E3FGAGF| E2FGAGFE| D2A2d2A2| 
F2GABAGF| E3FGAGF| BAFDAGEC |1 D2A2d2A2:|2 D3EF
|: GFGEFDEF| GFGEFDEF| GFGEFDEF| GFGEFDFA| =c4 cBce| d=cBAGFGA| G4{GA}GFGA| d=cBAGFGA| F2{GF}D2FDFA|
d=cBAGFGA| E4FAFD| FAFDGAGC| E2D2D4-|1 D6EF :|2 D2A2d2A2|: F2GABAGF| E3FGAGF| E2FGAGFE| D2A2d2A2| 
F2GABAGF| E3FGAGF| BAFDAGEC |1 D2A2d2A2:|2 D3EF| D2A2d2



